digitalocean.svg

<svg height="100%" stroke-miterlimit="10" style="fill-rule:nonzero;clip-rule:evenodd;stroke-linecap:round;stroke-linejoin:round;" version="1.1" viewBox="0 0 68.04 68.04" width="100%" xml:space="preserve" xmlns="http://www.w3.org/2000/svg" xmlns:vectornator="http://vectornator.io" xmlns:xlink="http://www.w3.org/1999/xlink">
<defs/>
<clipPath id="ArtboardFrame">
<rect height="68.04" width="68.04" x="0" y="0"/>
</clipPath>
<g clip-path="url(#ArtboardFrame)" id="layer1" vectornator:layerName="layer1">
<path d="M34.0205 68.0389L34.0205 54.8653C48.0039 54.8653 58.8121 41.0244 53.4757 26.3261C51.4974 20.8828 47.1561 16.5391 41.7105 14.5631C27.0121 9.22912 13.1784 20.0374 13.176 34.016C13.176 34.016 13.176 34.0208 13.1736 34.0208L0 34.0208C0 11.7441 21.5214-5.59978 44.8619 1.68881C55.0621 4.87117 63.1677 12.9768 66.3524 23.177C73.641 46.5199 56.2947 68.0389 34.0205 68.0389M34.0507 54.898L20.915 54.898L20.915 41.7648C20.915 41.7648 20.915 41.7624 20.9174 41.7624L34.0483 41.7624L34.0507 41.7648L34.0507 54.898ZM20.9122 64.9901L10.8213 64.9901L10.8189 64.9878L10.8189 54.8968L20.9146 54.8968L20.9146 64.9878L20.9122 64.9901ZM10.827 54.898L2.36754 54.898C2.36517 54.898 2.36279 54.8956 2.36279 54.8956L2.36279 46.441C2.36279 46.441 2.36517 46.4339 2.36754 46.4339L10.8222 46.4339C10.8246 46.4339 10.827 46.4363 10.827 46.4363L10.827 54.898Z" fill="#0069ff" fill-rule="nonzero" opacity="1" stroke="none"/>
</g>
</svg>

<svg stroke-miterlimit="10" style="fill-rule:nonzero;clip-rule:evenodd;stroke-linecap:round;stroke-linejoin:round" viewBox="0 0 68.04 68.04" xml:space="preserve" xmlns="http://www.w3.org/2000/svg" xmlns:vectornator="http://vectornator.io"><clipPath id="a"><path d="M0 0h68.04v68.04H0z"/></clipPath><g clip-path="url(#a)" vectornator:layerName="layer1"><path d="M34.02 68.039V54.865c13.984 0 24.792-13.84 19.456-28.539A19.735 19.735 0 0 0 41.71 14.563C27.012 9.23 13.178 20.037 13.176 34.016c0 0 0 .005-.002.005H0C0 11.744 21.521-5.6 44.862 1.689c10.2 3.182 18.306 11.288 21.49 21.488C73.641 46.52 56.295 68.039 34.02 68.039m.03-13.141H20.916V41.765s0-.003.002-.003h13.131l.003.003v13.133ZM20.913 64.99h-10.09l-.003-.002V54.897h10.096v10.09l-.003.003ZM10.827 54.898h-8.46l-.004-.002V46.44s.002-.007.005-.007h8.454c.003 0 .005.002.005.002v8.462Z" fill="#0069ff"/></g></svg>
